X: 230
T: Bağlanıp Zülf ü Hezaran
C: Şevki Bey
O: Turkey
F: http://compmusic.upf.edu/node/140
N: hicaz--sarki--devrihindi--baglanip_zulf--sevki_bey
N: makam= hicaz
N: form= sarki
N: usul= devrihindi = 7/4
M: 7/4
L: 1/16
K: C _7/8B ^f ^c 
Q: 1/4=120
%%MIDI tuningsystem comma53
g2 a2 a2 a3/2_1/4b/ ag f^e f2  | ef g2 g2 g3/2a/ gf f3/2e/ d2  | 
w:  ARANAĞME  |   | 
e2 =f2 fe ef ed cd cB  | cd =fe dc cB BA A2 a2  | 
w:   |   | 
g2 a2 a2 a3/2_1/4b/ ag f^e f2  | ef g2 g2 g3/2a/ gf f3/2e/ d2  | 
w:  ARANAĞME  |   | 
e2 =f2 fe ef ed cd cB  | cd =fe dc cB BA A4  | 
w:   |   | 
d2 cB BA A4 AB AG  | F4 G2 A2 {c}BA B4  | \
w:  Bağ *  *  la *  nıp   |  zülf_  | 
B2 A2 d2 dc2B cB BA  | 
w:  ü  *  he za  | 
A6 DE FG A4  | d4 cB A8  | e4 ed d6 z2  | \
w:  ran  SAZ  |  ta   |  ta   | 
f4 ed e3d a3g  | 
w:  ta  | 
f3e ed d6 =c_1/4B  | A4 GF G2 FE F2 ED  | \
w:  *  *  bı *  na   SAZ  |   | 
E2 F2 G2 A2 =B2 c2 d2  | 
w:   | 
f4 ed e3d a3g  | f3e ed d3A =Bc d2  | \
w:   |   | 
de d2 =c2 d2 e2 =f2 {g}fe  | 
w:  İb *  *  ret_ ol  | 
e4 {f}ed d3c cB BA  | d4 {e}dc cB BA B2 A2  | \
w:  dum   |  ah   | 
dc BA GF G6 z2  | 
w:  aşk   | 
FG AB cA B6 A2  | AB cd cB A6 z2  | e2 d2 ef g=f ed cB AB  | 
w:  er   |  er   |  er  | 
d2 cB BA A6 z2  | a4 gf g2 fe =f2 ed  | \
w:  ba *  *  bı *  na    |  SAZ  | 
cd e=f ed cB BA A4  | 
w:   | 
A2 B2 c2 d2 e2 f2 ed  | cd ef ga gf ^eg f4  | \
w:   |   | 
d4 e2 f6 ed  | 
w:  Hürr_ i ken   | 
cd e2 dc ed c=B A4  | A2 =B2 =c2 cB BA AG GF  | 
w:  düş  |  tüm  *  be la   | 
E2 F2 ED D8  | d4 cB A8  | e4 ed d6 z2  | \
w:  gir  |  da   |  da   | 
f4 ed e3d a3g  | 
w:  da  | 
f3e ed d6 =c_1/4B  | A4 GF G2 FE F2 ED  | \
w:  *  *  bı *  na   SAZ  |   | 
E2 F2 G2 A2 =B2 c2 d2  | 
w:   | 
f4 ed e3d a3g  | f3e ed d3A =Bc d2  | \
w:   |   | 
de d2 =c2 d2 e2 =f2 {g}fe  | 
w:  İb *  *  ret_ ol  | 
e4 {f}ed d3c cB BA  | d4 {e}dc cB BA B2 A2  | \
w:  dum   |  ah   | 
dc BA GF G6 z2  | 
w:  aşk   | 
FG AB cA B6 A2  | AB cd cB A6 z2  | e2 d2 ef g=f ed cB AB  | 
w:  er   |  er   |  er  | 
d2 cB BA A6 z2  | |


